usr/share/icons/Ambiant-MATE/actions/48/go-home.svg

<?xml version="1.0" encoding="UTF-8" standalone="no"?>
<!-- Created with Inkscape (http://www.inkscape.org/) -->

<svg
   xmlns:svg="http://www.w3.org/2000/svg"
   xmlns="http://www.w3.org/2000/svg"
   xmlns:xlink="http://www.w3.org/1999/xlink"
   version="1.1"
   width="48"
   height="48"
   id="svg2405">
  <defs
     id="defs2407">
    <linearGradient
       id="linearGradient3662">
      <stop
         id="stop3664"
         style="stop-color:#c17d11;stop-opacity:1"
         offset="0" />
      <stop
         id="stop3666"
         style="stop-color:#8f5902;stop-opacity:1"
         offset="1" />
    </linearGradient>
    <linearGradient
       id="linearGradient3656">
      <stop
         id="stop3658"
         style="stop-color:#c17d11;stop-opacity:1"
         offset="0" />
      <stop
         id="stop3660"
         style="stop-color:#e9b96e;stop-opacity:1"
         offset="1" />
    </linearGradient>
    <linearGradient
       id="linearGradient2804">
      <stop
         id="stop2806"
         style="stop-color:black;stop-opacity:0"
         offset="0" />
      <stop
         id="stop2812"
         style="stop-color:black;stop-opacity:1"
         offset="0.5" />
      <stop
         id="stop2808"
         style="stop-color:black;stop-opacity:0"
         offset="1" />
    </linearGradient>
    <linearGradient
       id="linearGradient2781">
      <stop
         id="stop2783"
         style="stop-color:black;stop-opacity:1"
         offset="0" />
      <stop
         id="stop2785"
         style="stop-color:black;stop-opacity:0"
         offset="1" />
    </linearGradient>
    <linearGradient
       id="linearGradient4873">
      <stop
         id="stop4875"
         style="stop-color:white;stop-opacity:1"
         offset="0" />
      <stop
         id="stop4877"
         style="stop-color:white;stop-opacity:0"
         offset="1" />
    </linearGradient>
    <linearGradient
       id="linearGradient2368">
      <stop
         id="stop2370"
         style="stop-color:white;stop-opacity:1"
         offset="0" />
      <stop
         id="stop2372"
         style="stop-color:white;stop-opacity:0"
         offset="1" />
    </linearGradient>
    <linearGradient
       id="linearGradient2341">
      <stop
         id="stop2343"
         style="stop-color:black;stop-opacity:1"
         offset="0" />
      <stop
         id="stop2345"
         style="stop-color:black;stop-opacity:0"
         offset="1" />
    </linearGradient>
    <linearGradient
       id="linearGradient2319">
      <stop
         id="stop2321"
         style="stop-color:black;stop-opacity:1"
         offset="0" />
      <stop
         id="stop2323"
         style="stop-color:black;stop-opacity:0"
         offset="1" />
    </linearGradient>
    <linearGradient
       id="linearGradient2299">
      <stop
         id="stop2301"
         style="stop-color:white;stop-opacity:1"
         offset="0" />
      <stop
         id="stop2303"
         style="stop-color:white;stop-opacity:0"
         offset="1" />
    </linearGradient>
    <linearGradient
       x1="80.223602"
       y1="117.5205"
       x2="48.046001"
       y2="59.7995"
       id="XMLID_2_"
       gradientUnits="userSpaceOnUse"
       gradientTransform="matrix(0.314683,0,0,0.314683,4.128264,3.742874)">
      <stop
         id="stop17"
         style="stop-color:#ccc;stop-opacity:1"
         offset="0" />
      <stop
         id="stop19"
         style="stop-color:white;stop-opacity:1"
         offset="0.9831" />
      <midPointStop
         id="midPointStop48"
         style="stop-color:#CCCCCC"
         offset="0" />
      <midPointStop
         id="midPointStop50"
         style="stop-color:#CCCCCC"
         offset="0.5" />
      <midPointStop
         id="midPointStop52"
         style="stop-color:#FFFFFF"
         offset="0.9831" />
    </linearGradient>
    <linearGradient
       x1="64.387703"
       y1="65.124001"
       x2="64.387703"
       y2="35.569"
       id="XMLID_39_"
       gradientUnits="userSpaceOnUse"
       gradientTransform="matrix(0.354101,0,0,0.354101,1.638679,-0.08364921)">
      <stop
         id="stop336"
         style="stop-color:white;stop-opacity:1"
         offset="0" />
      <stop
         id="stop338"
         style="stop-color:#ff6200;stop-opacity:1"
         offset="0.85390002" />
      <stop
         id="stop340"
         style="stop-color:#f25d00;stop-opacity:1"
         offset="1" />
      <midPointStop
         id="midPointStop335"
         style="stop-color:#FFFFFF"
         offset="0" />
      <midPointStop
         id="midPointStop337"
         style="stop-color:#FFFFFF"
         offset="0.5" />
      <midPointStop
         id="midPointStop339"
         style="stop-color:#FF6200"
         offset="0.8539" />
      <midPointStop
         id="midPointStop341"
         style="stop-color:#FF6200"
         offset="0.5" />
      <midPointStop
         id="midPointStop343"
         style="stop-color:#F25D00"
         offset="1" />
    </linearGradient>
    <radialGradient
       cx="1"
       cy="44"
       r="5"
       fx="1"
       fy="44"
       id="radialGradient2610"
       xlink:href="#linearGradient2781"
       gradientUnits="userSpaceOnUse"
       gradientTransform="matrix(2,0,0,0.8,-13,-79.2)" />
    <radialGradient
       cx="1"
       cy="44"
       r="5"
       fx="1"
       fy="44"
       id="radialGradient2612"
       xlink:href="#linearGradient2781"
       gradientUnits="userSpaceOnUse"
       gradientTransform="matrix(2,0,0,0.8,36,8.8)" />
    <linearGradient
       x1="21.875"
       y1="48.000977"
       x2="21.875"
       y2="40"
       id="linearGradient2614"
       xlink:href="#linearGradient2804"
       gradientUnits="userSpaceOnUse" />
    <linearGradient
       x1="24.066557"
       y1="25.745584"
       x2="24.066557"
       y2="47.865883"
       id="linearGradient2653"
       xlink:href="#linearGradient4873"
       gradientUnits="userSpaceOnUse"
       gradientTransform="translate(0,-2.7)" />
    <linearGradient
       x1="29.815948"
       y1="46.024483"
       x2="29.815948"
       y2="5.5"
       id="linearGradient2656"
       xlink:href="#XMLID_2_"
       gradientUnits="userSpaceOnUse"
       gradientTransform="translate(0,-2.7)" />
    <linearGradient
       x1="19.645313"
       y1="30.945076"
       x2="20.772415"
       y2="41.875004"
       id="linearGradient3446"
       xlink:href="#linearGradient3656"
       gradientUnits="userSpaceOnUse"
       gradientTransform="matrix(0.8872324,0,0,1.0979031,2.570041,-1.9746953)" />
    <radialGradient
       cx="20.443665"
       cy="37.425831"
       r="1.0821035"
       fx="20.443665"
       fy="37.425831"
       id="radialGradient3448"
       xlink:href="#linearGradient2319"
       gradientUnits="userSpaceOnUse"
       gradientTransform="matrix(1.1232973,0,0,0.9807825,-2.9597899,1.6871102)" />
    <radialGradient
       cx="29.913452"
       cy="30.442923"
       r="4.001883"
       fx="29.913452"
       fy="30.442923"
       id="radialGradient3468"
       xlink:href="#linearGradient2368"
       gradientUnits="userSpaceOnUse"
       gradientTransform="matrix(3.7888247,0,0,2.8858272,-82.183181,-55.815578)" />
    <linearGradient
       x1="19.078873"
       y1="44.218441"
       x2="17"
       y2="39.408337"
       id="linearGradient6593"
       xlink:href="#linearGradient3662"
       gradientUnits="userSpaceOnUse"
       gradientTransform="translate(0,-1)" />
    <radialGradient
       cx="11.68129"
       cy="19.554111"
       r="8.2452126"
       fx="11.68129"
       fy="19.554111"
       id="radialGradient6738"
       xlink:href="#linearGradient2341"
       gradientUnits="userSpaceOnUse"
       gradientTransform="matrix(4.0706958,0,0,-4.2180349,-4.845546,104.41287)" />
    <radialGradient
       cx="7.5326638"
       cy="24.202574"
       r="8.2452126"
       fx="7.5326638"
       fy="24.202574"
       id="radialGradient6741"
       xlink:href="#linearGradient2299"
       gradientUnits="userSpaceOnUse"
       gradientTransform="matrix(4.0706958,0,0,4.2180349,-24.917584,-80.211829)" />
    <linearGradient
       x1="64.387703"
       y1="65.124001"
       x2="64.387703"
       y2="35.569"
       id="linearGradient6745"
       xlink:href="#XMLID_39_"
       gradientUnits="userSpaceOnUse"
       gradientTransform="matrix(0.3515627,0,0,0.3555096,1.942234,-1.4437096)" />
  </defs>
  <g
     id="g3672">
    <g
       transform="matrix(0.9787234,0,0,0.75,0.0212766,11)"
       id="g2822"
       style="opacity:0.3">
      <rect
         width="10"
         height="8"
         x="-11"
         y="-48"
         transform="scale(-1,-1)"
         id="rect1892"
         style="fill:url(#radialGradient2610);fill-opacity:1;fill-rule:nonzero;stroke:none;stroke-width:1;marker:none;visibility:visible;display:inline;overflow:visible" />
      <rect
         width="10"
         height="8"
         x="38"
         y="40"
         id="rect2789"
         style="fill:url(#radialGradient2612);fill-opacity:1;fill-rule:nonzero;stroke:none;stroke-width:1;marker:none;visibility:visible;display:inline;overflow:visible" />
      <rect
         width="27"
         height="8"
         x="11"
         y="40"
         id="rect2793"
         style="fill:url(#linearGradient2614);fill-opacity:1;fill-rule:nonzero;stroke:none;stroke-width:1;marker:none;visibility:visible;display:inline;overflow:visible" />
    </g>
    <path
       d="m 6.4862366,22.3 0.0625,22.2 L 42.5,44.5 42.5,22.3 24,3.3 6.4862366,22.3 z"
       id="rect5117"
       style="fill:url(#linearGradient2656);fill-opacity:1;fill-rule:nonzero;stroke:#757575;stroke-width:1;stroke-linecap:butt;stroke-linejoin:round;stroke-miterlimit:4;stroke-opacity:1;stroke-dasharray:none;stroke-dashoffset:0;marker:none;visibility:visible;display:inline;overflow:visible" />
    <path
       d="m 7.517,22.3 0,21.2 33.983,0 0,-21.2 L 24,4.3 7.517,22.3 z"
       id="path7391"
       style="opacity:0.4;fill:none;stroke:url(#linearGradient2653);stroke-width:1;stroke-linecap:butt;stroke-linejoin:miter;stroke-miterlimit:4;stroke-opacity:1;stroke-dasharray:none;stroke-dashoffset:0;marker:none;visibility:visible;display:inline;overflow:visible" />
    <path
       d="m 23,29 0,15 -12,0 0,-15 12,0 z"
       id="path3438"
       style="fill:url(#linearGradient6593);fill-opacity:1;fill-rule:evenodd" />
    <path
       d="m 21.924882,30.097805 0,13.902195 -9.887697,0 0,-13.902195 9.887697,0 z"
       id="path3440"
       style="fill:url(#linearGradient3446);fill-opacity:1;fill-rule:evenodd" />
    <path
       d="m 20.005557,37.332384 c 0.671615,0 1.21449,0.473657 1.21449,1.056393 0,0.588635 -0.542875,1.066223 -1.21449,1.066223 -0.671098,0 -1.216557,-0.477588 -1.216557,-1.066223 5.15e-4,-0.582736 0.545459,-1.056393 1.216557,-1.056393 z"
       id="path3442"
       style="opacity:0.40909089;fill:url(#radialGradient3448);fill-opacity:1;fill-rule:evenodd" />
    <path
       d="M 20.00085,37 C 20.553381,37 21,37.446297 21,37.99537 21,38.549999 20.553381,39 20.00085,39 19.448744,39 19,38.549999 19,37.99537 19.000423,37.446297 19.448744,37 20.00085,37 z"
       id="path3444"
       style="fill:#fce94f;fill-opacity:1;fill-rule:evenodd" />
    <path
       d="m 27.918553,29.508624 9.162915,0 c 0.781071,0 1.409878,0.633403 1.409878,1.420194 l -0.0081,9.269989 c 0,0.786786 -0.604432,1.292569 -1.385504,1.292569 l -9.179223,0 c -0.781075,0 -1.40988,-0.633407 -1.40988,-1.420196 l 0,-9.142362 c 0,-0.786791 0.628805,-1.420194 1.40988,-1.420194 z"
       id="path3462"
       style="opacity:0.31818183;fill:none;stroke:white;stroke-width:1.01729715;stroke-linecap:butt;stroke-linejoin:miter;stroke-miterlimit:4;stroke-opacity:1;stroke-dashoffset:0;marker:none;visibility:visible;display:inline;overflow:visible" />
    <rect
       width="9.9986696"
       height="9.9899416"
       rx="0.38118067"
       ry="0.38233405"
       x="27.500679"
       y="30.510296"
       id="rect3464"
       style="fill:#a9c3c8;fill-opacity:1;fill-rule:nonzero;stroke:#757575;stroke-width:1.00124454;stroke-linecap:butt;stroke-linejoin:miter;stroke-miterlimit:4;stroke-opacity:1;stroke-dasharray:none;stroke-dashoffset:0;marker:none;visibility:visible;display:inline;overflow:visible" />
    <path
       d="m 28.018782,35.967189 c 3.653983,0.303614 5.582729,-1.325378 8.956396,-1.423505 l 0.02498,-3.529101 -9.000289,-0.0055 0.01892,4.958135 z"
       id="path3466"
       style="opacity:0.39772728;fill:url(#radialGradient3468);fill-opacity:1;fill-rule:nonzero;stroke:none;stroke-width:0.99999958;marker:none;visibility:visible;display:inline;overflow:visible" />
    <path
       d="m 24.587803,10.245592 18.791387,17.23817 0.491133,0.39355 0.400783,-0.172067 L 43.900908,26.940542 43.625285,26.716217 24.587803,11.081965 5.337276,26.887927 5.101377,27.03262 4.886221,27.742218 5.316534,27.87198 5.698331,27.56233 24.587803,10.245592 z"
       id="path3472"
       style="fill:url(#linearGradient6745)" />
    <path
       d="M 24.471067,0.4668824 2.647166,19.093989 l 0.074463,7.194434 2.382796,2.072535 c 0,0 19.268202,-16.923931 19.48336,-17.095288 l 18.300839,17.110797 2.380811,-2.132597 0.0834,-7.139663 -20.765049,-18.6373246 -0.116718,0 z"
       id="path3474"
       style="fill:#d1524c;fill-opacity:1;stroke:#973137;stroke-width:0.99800003;stroke-miterlimit:4;stroke-opacity:1;stroke-dasharray:none" />
    <path
       d="M 3.136279,19.3354 3.216329,26.174129 24.509837,7.6560704 24.440014,1.2369334 3.136279,19.3354 z"
       id="path3476"
       style="opacity:0.40909089;fill:url(#radialGradient6741);fill-opacity:1;fill-rule:nonzero;stroke:none;stroke-width:1;marker:none;visibility:visible;display:inline;overflow:visible" />
    <path
       d="M 24.62356,7.4260724 24.722307,1.5617344 44.889182,19.283907 44.726086,25.833614 24.62356,7.4260724 z"
       id="path3478"
       style="opacity:0.13636367;fill:url(#radialGradient6738);fill-opacity:1;fill-rule:nonzero;stroke:none;stroke-width:1;marker:none;visibility:visible;display:inline;overflow:visible" />
    <path
       d="m 21,37.5 a 0.73308754,0.5 0 1 1 -1.466175,0 A 0.73308754,0.5 0 1 1 21,37.5 z"
       transform="matrix(0.68204679,0,0,1,5.9440174,0.3)"
       id="path3670"
       style="fill:white;fill-opacity:1;stroke:none" />
  </g>
</svg>

<?xml version="1.0" encoding="UTF-8" standalone="no"?>
<!-- Created with Inkscape (http://www.inkscape.org/) -->
<svg id="svg2405" xmlns="http://www.w3.org/2000/svg" height="48" width="48" version="1.1" xmlns:xlink="http://www.w3.org/1999/xlink">
 <defs id="defs2407">
  <linearGradient id="linearGradient2781">
   <stop id="stop2783" offset="0"/>
   <stop id="stop2785" style="stop-opacity:0" offset="1"/>
  </linearGradient>
  <radialGradient id="radialGradient2610" xlink:href="#linearGradient2781" gradientUnits="userSpaceOnUse" cy="44" cx="1" gradientTransform="matrix(2 0 0 .8 -13 -79.2)" r="5"/>
  <radialGradient id="radialGradient2612" xlink:href="#linearGradient2781" gradientUnits="userSpaceOnUse" cy="44" cx="1" gradientTransform="matrix(2 0 0 .8 36 8.8)" r="5"/>
  <linearGradient id="linearGradient2614" y2="40" gradientUnits="userSpaceOnUse" x2="21.875" y1="48.001" x1="21.875">
   <stop id="stop2806" style="stop-opacity:0" offset="0"/>
   <stop id="stop2812" offset=".5"/>
   <stop id="stop2808" style="stop-opacity:0" offset="1"/>
  </linearGradient>
  <linearGradient id="linearGradient2653" y2="47.866" gradientUnits="userSpaceOnUse" x2="24.067" gradientTransform="translate(0,-2.7)" y1="25.746" x1="24.067">
   <stop id="stop4875" style="stop-color:#fff" offset="0"/>
   <stop id="stop4877" style="stop-color:#fff;stop-opacity:0" offset="1"/>
  </linearGradient>
  <linearGradient id="linearGradient2656" y2="5.5" gradientUnits="userSpaceOnUse" x2="29.816" gradientTransform="translate(0,-2.7)" y1="46.024" x1="29.816">
   <stop id="stop17" style="stop-color:#ccc" offset="0"/>
   <stop id="stop19" style="stop-color:#fff" offset=".9831"/>
  </linearGradient>
  <linearGradient id="linearGradient3446" y2="41.875" gradientUnits="userSpaceOnUse" x2="20.772" gradientTransform="matrix(.88723 0 0 1.0979 2.57 -1.9747)" y1="30.945" x1="19.645">
   <stop id="stop3658" style="stop-color:#c17d11" offset="0"/>
   <stop id="stop3660" style="stop-color:#e9b96e" offset="1"/>
  </linearGradient>
  <radialGradient id="radialGradient3448" gradientUnits="userSpaceOnUse" cy="37.426" cx="20.444" gradientTransform="matrix(1.1233 0 0 .98078 -2.9598 1.6871)" r="1.0821">
   <stop id="stop2321" offset="0"/>
   <stop id="stop2323" style="stop-opacity:0" offset="1"/>
  </radialGradient>
  <radialGradient id="radialGradient3468" gradientUnits="userSpaceOnUse" cy="30.443" cx="29.913" gradientTransform="matrix(3.7888 0 0 2.8858 -82.183 -55.816)" r="4.0019">
   <stop id="stop2370" style="stop-color:#fff" offset="0"/>
   <stop id="stop2372" style="stop-color:#fff;stop-opacity:0" offset="1"/>
  </radialGradient>
  <linearGradient id="linearGradient6593" y2="39.408" gradientUnits="userSpaceOnUse" x2="17" gradientTransform="translate(0,-1)" y1="44.218" x1="19.079">
   <stop id="stop3664" style="stop-color:#c17d11" offset="0"/>
   <stop id="stop3666" style="stop-color:#8f5902" offset="1"/>
  </linearGradient>
  <radialGradient id="radialGradient6738" gradientUnits="userSpaceOnUse" cy="19.554" cx="11.681" gradientTransform="matrix(4.0707 0 0 -4.218 -4.8455 104.41)" r="8.2452">
   <stop id="stop2343" offset="0"/>
   <stop id="stop2345" style="stop-opacity:0" offset="1"/>
  </radialGradient>
  <radialGradient id="radialGradient6741" gradientUnits="userSpaceOnUse" cy="24.203" cx="7.5327" gradientTransform="matrix(4.0707 0 0 4.218 -24.918 -80.212)" r="8.2452">
   <stop id="stop2301" style="stop-color:#fff" offset="0"/>
   <stop id="stop2303" style="stop-color:#fff;stop-opacity:0" offset="1"/>
  </radialGradient>
  <linearGradient id="linearGradient6745" y2="35.569" gradientUnits="userSpaceOnUse" x2="64.388" gradientTransform="matrix(.35156 0 0 .35551 1.9422 -1.4437)" y1="65.124" x1="64.388">
   <stop id="stop336" style="stop-color:#fff" offset="0"/>
   <stop id="stop338" style="stop-color:#ff6200" offset=".85390"/>
   <stop id="stop340" style="stop-color:#f25d00" offset="1"/>
  </linearGradient>
 </defs>
 <g id="g3672">
  <g id="g2822" style="opacity:.3" transform="matrix(.97872 0 0 .75 .021277 11)">
   <rect id="rect1892" style="fill:url(#radialGradient2610)" transform="scale(-1)" height="8" width="10" y="-48" x="-11"/>
   <rect id="rect2789" style="fill:url(#radialGradient2612)" height="8" width="10" y="40" x="38"/>
   <rect id="rect2793" style="fill:url(#linearGradient2614)" height="8" width="27" y="40" x="11"/>
  </g>
  <path id="rect5117" style="stroke-linejoin:round;stroke:#757575;fill:url(#linearGradient2656)" d="m6.4862 22.3 0.0625 22.2h35.951v-22.2l-18.5-19-17.514 19z"/>
  <path id="path7391" style="opacity:.4;stroke:url(#linearGradient2653);fill:none" d="m7.517 22.3v21.2h33.983v-21.2l-17.5-18-16.483 18z"/>
  <path id="path3438" style="fill:url(#linearGradient6593);fill-rule:evenodd" d="m23 29v15h-12v-15h12z"/>
  <path id="path3440" style="fill:url(#linearGradient3446);fill-rule:evenodd" d="m21.925 30.098v13.902h-9.8877v-13.902h9.8877z"/>
  <path id="path3442" style="opacity:.40909;fill:url(#radialGradient3448);fill-rule:evenodd" d="m20.006 37.332c0.67162 0 1.2145 0.47366 1.2145 1.0564 0 0.58864-0.54288 1.0662-1.2145 1.0662-0.6711 0-1.2166-0.47759-1.2166-1.0662 0.000515-0.58274 0.54546-1.0564 1.2166-1.0564z"/>
  <path id="path3444" style="fill:#fce94f;fill-rule:evenodd" d="m20.001 37c0.552 0 0.999 0.446 0.999 0.995 0 0.555-0.447 1.005-0.999 1.005s-1.001-0.45-1.001-1.005c0-0.549 0.449-0.995 1.001-0.995z"/>
  <path id="path3462" style="opacity:.31818;stroke:#fff;stroke-width:1.0173;fill:none" d="m27.919 29.509h9.1629c0.78107 0 1.4099 0.6334 1.4099 1.4202l-0.0081 9.27c0 0.78679-0.60443 1.2926-1.3855 1.2926h-9.1792c-0.78108 0-1.4099-0.63341-1.4099-1.4202v-9.1424c0-0.78679 0.6288-1.4202 1.4099-1.4202z"/>
  <rect id="rect3464" style="stroke:#757575;stroke-width:1.0012;fill:#a9c3c8" rx=".38118" ry=".38233" height="9.9899" width="9.9987" y="30.51" x="27.501"/>
  <path id="path3466" style="opacity:.39773;fill:url(#radialGradient3468)" d="m28.019 35.967c3.654 0.30361 5.5827-1.3254 8.9564-1.4235l0.02498-3.5291-9.0003-0.0055 0.01892 4.9581z"/>
  <path id="path3472" style="fill:url(#linearGradient6745)" d="m24.588 10.246 18.791 17.238 0.49113 0.39355 0.40078-0.17207l-0.37-0.765-0.276-0.225-19.037-15.634-19.251 15.806-0.2356 0.145-0.2152 0.709 0.4303 0.13 0.3818-0.31 18.89-17.316z"/>
  <path id="path3474" style="stroke:#973137;stroke-width:0.998;fill:#d1524c" d="m24.471 0.46688-21.824 18.627l0.074463 7.1944 2.3828 2.0725s19.268-16.924 19.483-17.095l18.301 17.111 2.3808-2.1326 0.0834-7.1397-20.765-18.637h-0.11672z"/>
  <path id="path3476" style="opacity:.40909;fill:url(#radialGradient6741)" d="m3.1363 19.335 0.08 6.839 21.294-18.518-0.07-6.4191-21.304 18.098z"/>
  <path id="path3478" style="opacity:.13636;fill:url(#radialGradient6738)" d="m24.624 7.4261 0.098-5.8644 20.167 17.722-0.163 6.55-20.102-18.408z"/>
  <path id="path3670" style="fill:#fff" d="m21 37.5a0.73309 0.5 0 1 1 -1.4662 0 0.73309 0.5 0 1 1 1.466 0z" transform="matrix(.68205 0 0 1 5.944 .3)"/>
 </g>
</svg>
